svgs/light/pump.svg

<svg xmlns="http://www.w3.org/2000/svg" viewBox="0 0 640 512"><!--! Font Awesome Pro 6.3.0 by @fontawesome - https://fontawesome.com License - https://fontawesome.com/license (Commercial License) Copyright 2023 Fonticons, Inc. --><path d="M544 368h-80c-8.961 0-16 7.168-16 16s7.039 16 16 16H544c8.961 0 16-7.168 16-16S552.1 368 544 368zM544 208h-80C455 208 448 215.2 448 224s7.039 16 16 16H544c8.961 0 16-7.168 16-16S552.1 208 544 208zM576 96h-108.5C454.7 96 442.2 99.74 432 106.8l-51.52 34.24C362.6 152.9 352 172.9 352 194.2V208H304V32H320c8.961 0 16-7.168 16-16S328.1 0 320 0H96C87.04 0 80 7.168 80 16S87.04 32 96 32h16v176H32V192c0-8.832-7.039-16-16-16S0 183.2 0 192v224c0 8.832 7.039 16 16 16S32 424.8 32 416v-16h320v13.76c0 21.38 10.56 41.38 28.48 53.25L432 501.2C442.2 508.3 454.7 512 467.5 512H576c35.2 0 64-28.64 64-64V160C640 124.6 611.2 96 576 96zM352 368H32v-128h80c17.6 0 32-14.34 32-32V32h128v176c0 17.66 14.4 32 32 32H352V368zM608 448c0 17.66-14.4 32-32 32h-108.5c-6.398 0-12.48-1.855-17.92-5.377l-51.2-34.24C389.4 434.4 384 424.4 384 413.8V194.2c0-10.69 5.441-20.67 14.4-26.62l51.2-34.24C455 129.9 461.1 128 467.5 128H576c17.6 0 32 14.34 32 32V448zM544 288h-80C455 288 448 295.2 448 304s7.039 16 16 16H544c8.961 0 16-7.168 16-16S552.1 288 544 288z"/></svg>

<svg xmlns="http://www.w3.org/2000/svg" viewBox="0 0 640 512"><!--! Font Awesome Pro 6.4.0 by @fontawesome - https://fontawesome.com License - https://fontawesome.com/license (Commercial License) Copyright 2023 Fonticons, Inc. --><path d="M76.9 0c-8.8 0-16 7.2-16 16s7.2 16 16 16H96V208H32V192c0-8.8-7.2-16-16-16s-16 7.2-16 16v32V384v32c0 8.8 7.2 16 16 16s16-7.2 16-16V400H320V368H32V240h80c8.8 0 16-7.2 16-16V32H256V224c0 8.8 7.2 16 16 16h48V208H288V32h16c8.8 0 16-7.2 16-16s-7.2-16-16-16H272 112 76.9zM449.6 133.4c5.3-3.5 11.4-5.4 17.8-5.4H576c17.7 0 32 14.3 32 32V448c0 17.7-14.3 32-32 32H467.4c-6.3 0-12.5-1.9-17.8-5.4l-51.4-34.3c-8.9-5.9-14.2-15.9-14.2-26.6V194.3c0-10.7 5.3-20.7 14.2-26.6l51.4-34.3zM431.9 501.3c10.5 7 22.9 10.7 35.5 10.7H576c35.3 0 64-28.7 64-64V160c0-35.3-28.7-64-64-64H467.4c-12.6 0-25 3.7-35.5 10.7L380.5 141c-17.8 11.9-28.5 31.9-28.5 53.3V413.7c0 21.4 10.7 41.4 28.5 53.3l51.4 34.3zM448 224c0 8.8 7.2 16 16 16h80c8.8 0 16-7.2 16-16s-7.2-16-16-16H464c-8.8 0-16 7.2-16 16zm0 80c0 8.8 7.2 16 16 16h80c8.8 0 16-7.2 16-16s-7.2-16-16-16H464c-8.8 0-16 7.2-16 16zm0 80c0 8.8 7.2 16 16 16h80c8.8 0 16-7.2 16-16s-7.2-16-16-16H464c-8.8 0-16 7.2-16 16z"/></svg>
